X:293
T:score90
L:1/8
Q:1/4=96
M:4/4
I:linebreak $
K:Bb
 (.d2 .d.d) (.B2 .B2) | (.A2 .A.A) e4 | d2 dd (dG/) z/ G2 |$ (c=B/c/ B/c/d/c/) F4 | %4
 d'2 d'd' b2 b2 | a2 aa e'4 |$ d'2 d'd' g'2 g'2 | (c'3 f') b4 |] %8
